X:1
T:[ID 1-121]
T:[ID 1-121]
T:Bezeichnung standardisiert: Menuett in a-moll; 33b; Men\"uet A moll In anderer Quelle: 33b - Rasmus Storm  um 1760 (Anm. S. Wascher);
T:Urheber unbekannt Datum in der hier transkribierten schriftlichen Quelle: vermutlich vor 1767
C:Urheber unbekannt
C:Datum in der hier transkribierten schriftlichen Quelle: vermutlich vor 1767
L:1/8
M:3/4
K:C
V:1 treble 
V:1
 ABcBcA | f2 e4 | dfedcB | Tc2 Bc A2 | cdedec | a2 g4 | dfedcB | c6 :: B4 c2 | d2 c2 B2 | cedcBA | %11
 ^G2 ^FG E2 | ABcBcA | g2 e2 ^g2 | afedcB | A6 :| %16

